TileServer und Tiles/svg/9/103_38.svg

<?xml version='1.0' encoding='UTF-8' standalone='no'?>
<svg xmlns="http://www.w3.org/2000/svg" width="497pt" viewBox="0 0 497 279" xmlns:xlink="http://www.w3.org/1999/xlink" height="279pt">
 <defs style="stroke:none;" overflow="visible">
  <path id="glyph0-7" d="M 2.421875 0.09375 C 1.796875 0.09375 1.316406 -0.0820312 0.984375 -0.4375 C 0.648438 -0.800781 0.484375 -1.296875 0.484375 -1.921875 C 0.484375 -2.347656 0.539062 -2.769531 0.65625 -3.1875 C 0.78125 -3.601562 0.957031 -3.984375 1.1875 -4.328125 C 1.425781 -4.671875 1.710938 -4.941406 2.046875 -5.140625 C 2.378906 -5.347656 2.75 -5.453125 3.15625 -5.453125 C 3.664062 -5.453125 4.046875 -5.34375 4.296875 -5.125 C 4.554688 -4.90625 4.6875 -4.597656 4.6875 -4.203125 C 4.6875 -3.859375 4.578125 -3.539062 4.359375 -3.25 C 4.148438 -2.96875 3.8125 -2.738281 3.34375 -2.5625 C 2.882812 -2.394531 2.289062 -2.3125 1.5625 -2.3125 L 1.390625 -2.3125 C 1.378906 -2.257812 1.375 -2.195312 1.375 -2.125 C 1.375 -2.0625 1.375 -2.003906 1.375 -1.953125 C 1.375 -1.546875 1.472656 -1.222656 1.671875 -0.984375 C 1.867188 -0.742188 2.171875 -0.625 2.578125 -0.625 C 2.828125 -0.625 3.066406 -0.660156 3.296875 -0.734375 C 3.523438 -0.804688 3.773438 -0.910156 4.046875 -1.046875 L 4.046875 -0.296875 C 3.785156 -0.179688 3.535156 -0.0859375 3.296875 -0.015625 C 3.054688 0.0546875 2.765625 0.09375 2.421875 0.09375 Z M 1.515625 -3.03125 L 1.59375 -3.03125 C 1.988281 -3.03125 2.351562 -3.0625 2.6875 -3.125 C 3.03125 -3.195312 3.304688 -3.316406 3.515625 -3.484375 C 3.722656 -3.648438 3.828125 -3.867188 3.828125 -4.140625 C 3.828125 -4.316406 3.769531 -4.457031 3.65625 -4.5625 C 3.539062 -4.675781 3.359375 -4.734375 3.109375 -4.734375 C 2.785156 -4.734375 2.472656 -4.582031 2.171875 -4.28125 C 1.878906 -3.988281 1.660156 -3.570312 1.515625 -3.03125 Z M 1.515625 -3.03125 "/>
  <path id="glyph0-6" d="M 0.265625 0 L 1.875 -7.59375 L 2.765625 -7.59375 L 2.125 -4.578125 C 2.007812 -4.046875 1.910156 -3.632812 1.828125 -3.34375 C 1.742188 -3.050781 1.6875 -2.859375 1.65625 -2.765625 L 1.671875 -2.765625 L 4.203125 -5.359375 L 5.25 -5.359375 L 2.953125 -3.0625 L 4.375 0 L 3.40625 0 L 2.28125 -2.515625 L 1.5625 -1.9375 L 1.15625 0 Z M 0.265625 0 "/>
  <path id="glyph0-5" d="M 0.40625 0 L 1.921875 -7.140625 L 2.8125 -7.140625 L 1.453125 -0.796875 L 4.203125 -0.796875 L 4.03125 0 Z M 0.40625 0 "/>
  <path id="glyph0-4" d=""/>
  <path id="glyph0-3" d="M 0.265625 0 L 1.890625 -7.59375 L 2.765625 -7.59375 L 1.15625 0 Z M 0.265625 0 "/>
  <path id="glyph0-2" d="M 1.9375 0.09375 C 1.507812 0.09375 1.160156 -0.0546875 0.890625 -0.359375 C 0.617188 -0.671875 0.484375 -1.128906 0.484375 -1.734375 C 0.484375 -2.234375 0.546875 -2.707031 0.671875 -3.15625 C 0.804688 -3.601562 0.988281 -4 1.21875 -4.34375 C 1.445312 -4.6875 1.722656 -4.957031 2.046875 -5.15625 C 2.367188 -5.351562 2.722656 -5.453125 3.109375 -5.453125 C 3.460938 -5.453125 3.75 -5.359375 3.96875 -5.171875 C 4.1875 -4.992188 4.347656 -4.78125 4.453125 -4.53125 L 4.515625 -4.53125 L 4.828125 -5.359375 L 5.5 -5.359375 L 4.359375 0 L 3.65625 0 L 3.796875 -0.984375 L 3.75 -0.984375 C 3.519531 -0.691406 3.25 -0.4375 2.9375 -0.21875 C 2.632812 -0.0078125 2.300781 0.09375 1.9375 0.09375 Z M 2.21875 -0.625 C 2.46875 -0.625 2.707031 -0.710938 2.9375 -0.890625 C 3.175781 -1.078125 3.390625 -1.320312 3.578125 -1.625 C 3.773438 -1.9375 3.925781 -2.28125 4.03125 -2.65625 C 4.082031 -2.851562 4.113281 -3.03125 4.125 -3.1875 C 4.144531 -3.351562 4.15625 -3.507812 4.15625 -3.65625 C 4.15625 -3.96875 4.066406 -4.222656 3.890625 -4.421875 C 3.722656 -4.617188 3.492188 -4.71875 3.203125 -4.71875 C 2.941406 -4.71875 2.703125 -4.632812 2.484375 -4.46875 C 2.265625 -4.3125 2.070312 -4.085938 1.90625 -3.796875 C 1.738281 -3.515625 1.609375 -3.191406 1.515625 -2.828125 C 1.421875 -2.472656 1.375 -2.097656 1.375 -1.703125 C 1.375 -1.347656 1.445312 -1.078125 1.59375 -0.890625 C 1.738281 -0.710938 1.945312 -0.625 2.21875 -0.625 Z M 2.21875 -0.625 "/>
  <path id="glyph0-1" d="M 0.421875 0 L 1.9375 -7.140625 L 2.8125 -7.140625 L 2.1875 -4.125 L 5.3125 -4.125 L 5.953125 -7.140625 L 6.84375 -7.140625 L 5.328125 0 L 4.453125 0 L 5.15625 -3.328125 L 2.015625 -3.328125 L 1.3125 0 Z M 0.421875 0 "/>
  <path id="glyph0-0" d="M 0.9375 0 L 0.9375 -7.140625 L 5.046875 -7.140625 L 5.046875 0 Z M 1.453125 -0.515625 L 4.546875 -0.515625 L 4.546875 -6.625 L 1.453125 -6.625 Z M 1.453125 -0.515625 "/>
 </defs>
 <image width="497" xlink:href="svg/9/103_38.jpg" height="279"/>
 <g>
  <path d="M 215.820312 240.714844 L 217.335938 233.574219 L 218.210938 233.574219 L 217.585938 236.589844 L 220.710938 236.589844 L 221.351562 233.574219 L 222.242188 233.574219 L 220.726562 240.714844 L 219.851562 240.714844 L 220.554688 237.386719 L 217.414062 237.386719 L 216.710938 240.714844 Z M 215.820312 240.714844 " transform=" rotate(  340 236.523 237.715) " style="fill:none;stroke-width:2;stroke-linecap:butt;stroke-linejoin:round;stroke:rgb(100%,100%,100%);stroke-opacity:0.6;stroke-miterlimit:10;"/>
  <path d="M 224.136719 240.808594 C 223.707031 240.808594 223.359375 240.660156 223.089844 240.355469 C 222.816406 240.042969 222.683594 239.585938 222.683594 238.980469 C 222.683594 238.480469 222.746094 238.007812 222.871094 237.558594 C 223.003906 237.113281 223.1875 236.714844 223.417969 236.371094 C 223.644531 236.027344 223.921875 235.757812 224.246094 235.558594 C 224.566406 235.363281 224.921875 235.261719 225.308594 235.261719 C 225.660156 235.261719 225.949219 235.355469 226.167969 235.542969 C 226.386719 235.722656 226.546875 235.933594 226.652344 236.183594 L 226.714844 236.183594 L 227.027344 235.355469 L 227.699219 235.355469 L 226.558594 240.714844 L 225.855469 240.714844 L 225.996094 239.730469 L 225.949219 239.730469 C 225.71875 240.023438 225.449219 240.277344 225.136719 240.496094 C 224.832031 240.707031 224.5 240.808594 224.136719 240.808594 Z M 224.417969 240.089844 C 224.667969 240.089844 224.90625 240.003906 225.136719 239.824219 C 225.375 239.636719 225.589844 239.394531 225.777344 239.089844 C 225.972656 238.777344 226.125 238.433594 226.230469 238.058594 C 226.28125 237.863281 226.3125 237.683594 226.324219 237.527344 C 226.34375 237.363281 226.355469 237.207031 226.355469 237.058594 C 226.355469 236.746094 226.265625 236.492188 226.089844 236.292969 C 225.921875 236.097656 225.691406 235.996094 225.402344 235.996094 C 225.140625 235.996094 224.902344 236.082031 224.683594 236.246094 C 224.464844 236.402344 224.269531 236.628906 224.105469 236.917969 C 223.9375 237.199219 223.808594 237.523438 223.714844 237.886719 C 223.621094 238.242188 223.574219 238.617188 223.574219 239.011719 C 223.574219 239.367188 223.644531 239.636719 223.792969 239.824219 C 223.9375 240.003906 224.144531 240.089844 224.417969 240.089844 Z M 224.417969 240.089844 " transform=" rotate(  340 236.523 237.715) " style="fill:none;stroke-width:2;stroke-linecap:butt;stroke-linejoin:round;stroke:rgb(100%,100%,100%);stroke-opacity:0.6;stroke-miterlimit:10;"/>
  <path d="M 228.144531 240.714844 L 229.769531 233.121094 L 230.644531 233.121094 L 229.035156 240.714844 Z M 228.144531 240.714844 " transform=" rotate(  340 236.523 237.715) " style="fill:none;stroke-width:2;stroke-linecap:butt;stroke-linejoin:round;stroke:rgb(100%,100%,100%);stroke-opacity:0.6;stroke-miterlimit:10;"/>
  <path d="M 230.722656 240.714844 L 232.347656 233.121094 L 233.222656 233.121094 L 231.613281 240.714844 Z M 230.722656 240.714844 " transform=" rotate(  340 236.523 237.715) " style="fill:none;stroke-width:2;stroke-linecap:butt;stroke-linejoin:round;stroke:rgb(100%,100%,100%);stroke-opacity:0.6;stroke-miterlimit:10;"/>
  <path d="M 236.042969 240.714844 L 237.558594 233.574219 L 238.449219 233.574219 L 237.089844 239.917969 L 239.839844 239.917969 L 239.667969 240.714844 Z M 236.042969 240.714844 " transform=" rotate(  340 236.523 237.715) " style="fill:none;stroke-width:2;stroke-linecap:butt;stroke-linejoin:round;stroke:rgb(100%,100%,100%);stroke-opacity:0.6;stroke-miterlimit:10;"/>
  <path d="M 242.355469 240.808594 C 241.925781 240.808594 241.578125 240.660156 241.308594 240.355469 C 241.035156 240.042969 240.902344 239.585938 240.902344 238.980469 C 240.902344 238.480469 240.964844 238.007812 241.089844 237.558594 C 241.222656 237.113281 241.40625 236.714844 241.636719 236.371094 C 241.863281 236.027344 242.140625 235.757812 242.464844 235.558594 C 242.785156 235.363281 243.140625 235.261719 243.527344 235.261719 C 243.878906 235.261719 244.167969 235.355469 244.386719 235.542969 C 244.605469 235.722656 244.765625 235.933594 244.871094 236.183594 L 244.933594 236.183594 L 245.246094 235.355469 L 245.917969 235.355469 L 244.777344 240.714844 L 244.074219 240.714844 L 244.214844 239.730469 L 244.167969 239.730469 C 243.9375 240.023438 243.667969 240.277344 243.355469 240.496094 C 243.050781 240.707031 242.71875 240.808594 242.355469 240.808594 Z M 242.636719 240.089844 C 242.886719 240.089844 243.125 240.003906 243.355469 239.824219 C 243.59375 239.636719 243.808594 239.394531 243.996094 239.089844 C 244.191406 238.777344 244.34375 238.433594 244.449219 238.058594 C 244.5 237.863281 244.53125 237.683594 244.542969 237.527344 C 244.5625 237.363281 244.574219 237.207031 244.574219 237.058594 C 244.574219 236.746094 244.484375 236.492188 244.308594 236.292969 C 244.140625 236.097656 243.910156 235.996094 243.621094 235.996094 C 243.359375 235.996094 243.121094 236.082031 242.902344 236.246094 C 242.683594 236.402344 242.488281 236.628906 242.324219 236.917969 C 242.15625 237.199219 242.027344 237.523438 241.933594 237.886719 C 241.839844 238.242188 241.792969 238.617188 241.792969 239.011719 C 241.792969 239.367188 241.863281 239.636719 242.011719 239.824219 C 242.15625 240.003906 242.363281 240.089844 242.636719 240.089844 Z M 242.636719 240.089844 " transform=" rotate(  340 236.523 237.715) " style="fill:none;stroke-width:2;stroke-linecap:butt;stroke-linejoin:round;stroke:rgb(100%,100%,100%);stroke-opacity:0.6;stroke-miterlimit:10;"/>
  <path d="M 246.363281 240.714844 L 247.972656 233.121094 L 248.863281 233.121094 L 248.222656 236.136719 C 248.105469 236.667969 248.007812 237.082031 247.925781 237.371094 C 247.839844 237.664062 247.785156 237.855469 247.753906 237.949219 L 247.769531 237.949219 L 250.300781 235.355469 L 251.347656 235.355469 L 249.050781 237.652344 L 250.472656 240.714844 L 249.503906 240.714844 L 248.378906 238.199219 L 247.660156 238.777344 L 247.253906 240.714844 Z M 246.363281 240.714844 " transform=" rotate(  340 236.523 237.715) " style="fill:none;stroke-width:2;stroke-linecap:butt;stroke-linejoin:round;stroke:rgb(100%,100%,100%);stroke-opacity:0.6;stroke-miterlimit:10;"/>
  <path d="M 253.269531 240.808594 C 252.644531 240.808594 252.164062 240.632812 251.832031 240.277344 C 251.496094 239.914062 251.332031 239.417969 251.332031 238.792969 C 251.332031 238.367188 251.386719 237.945312 251.503906 237.527344 C 251.628906 237.113281 251.804688 236.730469 252.035156 236.386719 C 252.273438 236.042969 252.558594 235.773438 252.894531 235.574219 C 253.226562 235.367188 253.597656 235.261719 254.003906 235.261719 C 254.511719 235.261719 254.894531 235.371094 255.144531 235.589844 C 255.402344 235.808594 255.535156 236.117188 255.535156 236.511719 C 255.535156 236.855469 255.425781 237.175781 255.207031 237.464844 C 254.996094 237.746094 254.660156 237.976562 254.191406 238.152344 C 253.730469 238.320312 253.136719 238.402344 252.410156 238.402344 L 252.238281 238.402344 C 252.226562 238.457031 252.222656 238.519531 252.222656 238.589844 C 252.222656 238.652344 252.222656 238.710938 252.222656 238.761719 C 252.222656 239.167969 252.320312 239.492188 252.519531 239.730469 C 252.714844 239.972656 253.019531 240.089844 253.425781 240.089844 C 253.675781 240.089844 253.914062 240.054688 254.144531 239.980469 C 254.371094 239.910156 254.621094 239.804688 254.894531 239.667969 L 254.894531 240.417969 C 254.632812 240.535156 254.382812 240.628906 254.144531 240.699219 C 253.902344 240.769531 253.613281 240.808594 253.269531 240.808594 Z M 252.363281 237.683594 L 252.441406 237.683594 C 252.835938 237.683594 253.199219 237.652344 253.535156 237.589844 C 253.878906 237.519531 254.152344 237.398438 254.363281 237.230469 C 254.570312 237.066406 254.675781 236.847656 254.675781 236.574219 C 254.675781 236.398438 254.617188 236.257812 254.503906 236.152344 C 254.386719 236.039062 254.207031 235.980469 253.957031 235.980469 C 253.632812 235.980469 253.320312 236.132812 253.019531 236.433594 C 252.726562 236.726562 252.507812 237.144531 252.363281 237.683594 Z M 252.363281 237.683594 " transform=" rotate(  340 236.523 237.715) " style="fill:none;stroke-width:2;stroke-linecap:butt;stroke-linejoin:round;stroke:rgb(100%,100%,100%);stroke-opacity:0.6;stroke-miterlimit:10;"/>
  <g transform=" rotate(  340 236.523 237.715) " style="fill:rgb(30.196078%,50.196078%,70.196078%);fill-opacity:1;">
   <use xlink:href="#glyph0-1" y="240.714695" x="215.397845"/>
   <use xlink:href="#glyph0-2" y="240.714695" x="222.197845"/>
   <use xlink:href="#glyph0-3" y="240.714695" x="227.877845"/>
   <use xlink:href="#glyph0-3" y="240.714695" x="230.457845"/>
   <use xlink:href="#glyph0-4" y="240.714695" x="233.037845"/>
   <use xlink:href="#glyph0-5" y="240.714695" x="235.637845"/>
   <use xlink:href="#glyph0-2" y="240.714695" x="240.417845"/>
   <use xlink:href="#glyph0-6" y="240.714695" x="246.097845"/>
   <use xlink:href="#glyph0-7" y="240.714695" x="250.847845"/>
  </g>
 </g>
</svg>

<svg xmlns="http://www.w3.org/2000/svg" xmlns:xlink="http://www.w3.org/1999/xlink" viewBox="0 0 497 279"> <defs overflow="visible" style="stroke:none">  <path id="f" d="M2.4 0c-.6 0-1 0-1.4-.3C.6-.8.5-1.3.5-2c0-.3 0-.8.2-1.2 0-.4.3-.8.5-1.1.2-.4.5-.7.8-.8a2 2 0 0 1 1.2-.4c.5 0 .8.2 1.1.5.3 0 .4.4.4.8 0 .3-.1.7-.3 1-.4.2-.6.4-1 .6-.6.2-1.2.3-1.9.3h-.1v.3c0 .5 0 .8.3 1 .2.3.5.4.9.4l.7-.1A5 5 0 0 0 4-1v.7a6 6 0 0 1-.7.3h-.9Zm-.9-3 1.3-.1.7-.4c.2-.1.3-.4.3-.5l-.1-.6-.7-.1c-.2 0-.5.1-.9.4L1.6-3Zm0 0"/>  <path id="e" d="m.3 0 1.6-7.6h.9l-.8 3c.1.6 0 1-.2 1.3l-.1.5 2.5-2.6h1L3-3l1.4 3h-1L2.3-2.5l-.7.5-.4 2Zm0 0"/>  <path id="d" d="M.4 0 2-7.1h1L1.4-.8h2.8L4 0Zm0 0"/>  <path id="c" d="m.3 0 1.6-7.6h.9L1.2 0Zm0 0"/>  <path id="b" d="M2 0c-.6 0-.9 0-1.2-.3C.6-.7.5-1 .5-1.7c0-.5 0-1 .2-1.5l.5-1.1c.2-.4.5-.7.8-.9a2 2 0 0 1 1.1-.3c.4 0 .6.1.9.3l.5.7.3-.9h.7L4.4 0h-.7l.1-1c-.3.3-.5.6-.9.8-.3.2-.6.2-.9.2Zm.1-.5c.4-.1.6-.2.9-.5l.6-.6a4 4 0 0 0 .4-1 3 3 0 0 0 .1-.7 4 4 0 0 0 0-.4c.1-.3.1-.5-.1-.7-.3-.2-.5-.3-.8-.3-.3 0-.5 0-.7.2a2 2 0 0 0-.6.7l-.4 1-.1 1.1c0 .4 0 .6.2.8.1.2.3.3.6.3Zm.1-.1"/>  <path id="a" d="M.4 0 2-7.1h1l-.9 3h3.2l.7-3h.8L5.3 0h-.8l.7-3.3H2L1.3 0Zm0 0"/>  <path d="M1 0v-7.1h4V0Zm.4-.5h3.1v-6.1h-3Zm.1 0"/> </defs> <image xlink:href="svg/9/103_38.jpg" width="497" height="279"/> <path d="m215.8 240.7 1.5-7.1h1l-.8 3h3.2l.7-3h.8l-1.5 7.1h-.7l.6-3.3h-3.2l-.7 3.3Zm8.3.1c-.4 0-.7-.1-1-.4-.3-.4-.4-.8-.4-1.4 0-.5 0-1 .2-1.4l.5-1.2c.2-.4.6-.6.8-.8a2 2 0 0 1 1.1-.3c.4 0 .7 0 .9.2l.5.7.3-.8h.7l-1.1 5.3h-.7l.1-1-1 .8c-.2.2-.5.3-.9.3Zm.3-.7c.3-.1.6-.1.7-.3l.7-.7a4 4 0 0 0 .4-1.1 3 3 0 0 0 .1-.5 4 4 0 0 0 0-.4c.1-.4.1-.6-.1-.8-.3-.3-.5-.3-.8-.3-.3 0-.5 0-.7.2a2 2 0 0 0-.7.8l-.3 1-.1 1c0 .4 0 .6.2.8.1.2.2.3.6.3Zm3.7.6 1.7-7.6h.8l-1.6 7.6Zm2.6 0 1.6-7.6h1l-1.8 7.6Zm5.3 0 1.6-7.1h.8l-1.3 6.3h2.7l-.1.8Zm6.4.1c-.5 0-.8-.1-1-.4-.4-.4-.6-.8-.6-1.4.1-.5.1-1 .3-1.4l.5-1.2c.4-.4.5-.6.9-.8a2 2 0 0 1 1-.3c.5 0 .7 0 .9.2l.5.7.3-.8h.8l-1.2 5.3h-.8l.2-1-.8.8c-.4.2-.7.3-1 .3Zm.2-.7c.4-.1.5-.1.8-.3l.6-.7a4 4 0 0 0 .4-1.1 3 3 0 0 0 .1-.5 4 4 0 0 0 0-.4c.1-.4.1-.6-.1-.8-.3-.3-.4-.3-.8-.3-.2 0-.5 0-.6.2a2 2 0 0 0-.7.8l-.3 1-.2 1c0 .4 0 .6.2.8l.6.3Zm3.8.6 1.6-7.6h.9l-.7 3c0 .6-.2 1-.2 1.3l-.2.5 2.5-2.5h1l-2.2 2.3 1.4 3h-1l-1.1-2.5-.7.6-.4 2Zm6.9.1c-.7 0-1.1-.2-1.5-.5-.3-.4-.5-.9-.5-1.5 0-.4 0-.9.2-1.3l.5-1.1 1-.8a2 2 0 0 1 1-.3c.5 0 .9 0 1.1.3.3.2.4.4.4 1 0 .2 0 .5-.3.8-.2.3-.5.6-1 .8l-1.8.2h-.2v.4c0 .4.1.7.3 1 .2.2.5.2 1 .2h.5a5 5 0 0 0 1-.3v.7a6 6 0 0 1-1 .3l-.7.1Zm-1-3.1h.2l1-.1c.5 0 .7-.2.9-.4.2-.1.3-.4.3-.6 0-.2 0-.3-.2-.4-.1-.2-.3-.2-.5-.2-.4 0-.7 0-1 .4-.3.3-.5.7-.6 1.3Zm.1 0" style="fill:none;stroke-width:2;stroke-linecap:butt;stroke-linejoin:round;stroke:#fff;stroke-opacity:.6;stroke-miterlimit:10" transform=" rotate(  340 236.523 237.715) "/> <g style="fill:#4d80b3;fill-opacity:1" transform=" rotate(  340 236.523 237.715) ">  <use xlink:href="#a" x="215.4" y="240.7"/>  <use xlink:href="#b" x="222.2" y="240.7"/>  <use xlink:href="#c" x="227.9" y="240.7"/>  <use xlink:href="#c" x="230.5" y="240.7"/>  <use xlink:href="#glyph0-4" x="233" y="240.7"/>  <use xlink:href="#d" x="235.6" y="240.7"/>  <use xlink:href="#b" x="240.4" y="240.7"/>  <use xlink:href="#e" x="246.1" y="240.7"/>  <use xlink:href="#f" x="250.8" y="240.7"/> </g></svg>
